X: 11621
M: C
L: 1/8
K: E
b4 g4 | e2 E>E E2 zE/F/ |\
fedc Bgfe | dcBA G2 c>c |\
!f!B>Bg>g f>fb>b |1 g2e>e e>Be>g :|2 g2e>e e2 ||
|: "^mezf."B/c/d/e/ |\
fgfb g2 E/F/G/A/ | BcBe !p!c2 c'b |\
(3(aba) (3(gag) (3(fgf) (3(efe) | (3(ded) (3(cdc) B2 !f!g>e |\
|: "^Bugle."zB/B/ |\
dB/B/ dB/B/ eB/B/ eB/B/ | fB/B/ fB/B/ g2 "^dolce."fe |\
deBc EFGA | (G4 F2) zB/B/ |\
"^mezf."dB/B/ dB/B/ eB/B/ eB/B/ | fB/B/ fB/B/ gf"^dolce"ed |\
fedc BAGF | (F4 E2) :|


